src/topics/icons/dashlane.svg

<svg height="151" preserveAspectRatio="xMidYMid" viewBox="0 0 512 151" width="512" xmlns="http://www.w3.org/2000/svg"><path d="m119.560391 23.7539056c-.950779-3.9034711-1.73408-5.6114841-3.130597-5.739862-2.173953-.2078811-4.460644.5617349-6.030505.8347823-5.82132 1.0524384-8.94931.3590673-12.3640326-3.2902547-2.1270334-2.2769162-.8250074-2.0019137 4.3322666-2.869931 3.120822-.5285 5.268708-1.1071782 7.424415-2.0351487 3.281131-1.79989766 2.114652-4.07551056-1.55031-5.82262343-2.757193-1.32809252-14.2023791-1.27726268-21.5616278-1.12542482-7.46156.16161283-14.7966971.4698502-19.1843551-3.34303956 4.2240901.77808757 9.3566008.79177253 12.7765368.60604811 11.2751014-.62364305 19.8327611-1.32548586 27.9036281-.76179595 7.056876.48288349 15.046936 2.72591315 23.094343 4.76432011 7.866243 1.97910549 16.80252 3.36193784 18.683225 3.42254265 2.012992.03453822.710966 10.05909529-3.940616 11.47646579-5.262844 1.2336012-10.352345 1.1273798-13.583298 2.8888293-4.596842 2.4802356 1.595927 16.5757416 3.57829 19.9722177.570859 1.0035635 2.437226 4.6242122 5.451175 6.9649915 1.539884 1.1847263 5.289562 3.7294767 9.065958 4.0155575 18.197735 1.4010789 60.602204 1.1189082 63.506674 2.7259131 1.543142.868669-11.943058 4.6535372-11.943058 4.6535372s-45.743599.2332959-65.230978 4.1999785c-19.435246 3.9712443-44.4213711 13.2379153-59.6579419 24.440682-56.4843352 41.5599118-77.44056641 60.7462218-77.19749551 58.1662818.27174416-2.902514.55586993-7.89231 1.01920349-9.601627.62624971-2.352509 3.41667766 1.716485 56.74825942-50.2394329 6.4495248-6.301597.3486406-11.5553172-6.3165853-12.8286699-7.9001303-1.7594945-21.5160111-7.7228776-12.9765978-6.7010674 4.8360032.320619 29.3151334 7.6088362 75.5214146-28.2789867 6.171264-4.7793084 6.410424-13.0574042 5.562609-16.4942835zm37.930791 125.1834724v-5.047794c-.525893.525893-.946217 1.157356-1.47211 1.682598-1.998004 1.893086-6.310069 4.942876-13.145379 4.942876-1.788168 0-5.574339-.210488-9.780834-2.208491-5.678606-2.629467-13.565703-9.464778-13.565703-24.60816 0-16.090252 8.729048-24.398324 14.723059-27.1320571 1.682598-.7363811 4.731737-1.7881678 9.149371-1.7881678 1.787516 0 5.573688.1055697 9.569695 2.3140611.73573.4203237 1.367193.7357294 2.629467 1.6825981.946217.7357294 1.682598 1.6825977 1.892434 1.8924337v-25.9753518h12.514568v74.2454548zm-2.418979-36.91224c-.630811-1.156704-1.787516-2.523897-2.733733-3.260278-2.103573-1.682598-4.416983-2.313409-7.04645-2.313409-1.051135 0-3.785519.210487-6.414986 1.893085-5.994011 3.89109-6.204499 12.408998-6.204499 13.986678 0 7.782179 3.260278 16.720411 12.514567 16.720411 3.365197 0 5.994012-1.051135 8.202503-3.575032 3.260278-3.575032 4.101577-7.887097 3.996659-12.619485 0-3.365196-.525893-7.67661-2.314061-10.83197zm54.370335 36.91224-.316057-4.101577c-1.998004 1.682598-3.78552 2.523897-4.837307 2.944872-3.470114 1.57768-6.730392 2.418979-10.621481 2.418979-2.523897 0-11.988675-.316057-16.825981-8.097584-.841299-1.367844-2.418979-4.206496-2.314061-8.412991 0-2.944872.736381-8.833966 7.151367-13.14603 4.311414-2.944221 8.412991-3.575033 13.250297-4.52125 7.782179-1.57768 10.622134-2.209143 14.513223-3.576335 0-1.366541-.105569-3.049139-.736381-4.311413-1.051786-1.998004-3.680601-3.575684-8.308072-3.575684-4.837307 0-7.887097 1.472762-9.254289 3.260278-1.472111 1.787516-1.367193 3.89109-1.367193 4.626819l-12.829973-.735729c.104918-2.31341.525893-7.887097 5.678605-12.0935927 3.260279-2.7350364 8.203155-4.8379582 17.352526-4.8379582 8.622827 0 13.671273 1.7881678 16.931551 4.1015772 2.20784 1.5776797 3.365196 3.3651957 3.78552 4.2064947 1.367192 2.734385 1.367192 6.414987 1.367192 9.359208v27.974008c0 3.996007.209836 5.152712 2.313409 8.517908zm0-26.185188c-2.103573 1.051135-4.837958 2.102921-9.991322 2.944221-2.838651.525893-5.889093.630811-8.517908 2.208491-1.787516 1.156705-3.049791 2.944221-3.049791 5.25763 0 3.15536 2.31341 6.205151 8.623478 6.205151 6.94088 0 11.042458-3.575684 12.199162-5.994011.841299-1.68325.736381-3.154709.736381-4.837307zm63.518404 16.930899c-2.523897 4.837958-9.044454 10.831969-21.873775 10.831969-9.885753 0-16.931551-3.365196-20.191829-5.3632-1.787516-1.157356-3.470114-2.523897-5.047794-4.101577l9.464777-7.676609c.420975.525241 1.051787 1.471458 2.418979 2.628815 4.521901 3.890438 11.252293 4.101577 12.725055 4.101577 3.154709 0 6.835311-.736381 8.938884-3.154709.841299-.841299 1.366541-1.998655 1.366541-3.050442 0-.420323-.104918-1.261622-.841299-2.208491-1.366541-1.893086-3.049139-1.998004-6.940229-2.839303-3.470765-.736381-6.94088-1.156053-10.306076-1.997352-2.314061-.631463-14.512571-3.576336-14.512571-14.933547 0-3.996659 1.682598-6.94088 2.418327-8.097584 2.629467-4.1015777 8.833966-9.0444539 20.191177-9.0444539 4.101577 0 14.723059.631463 22.610808 9.7801829l-8.938884 8.308072c-1.051786-2.208491-2.418979-3.470114-3.260278-4.206495-3.260278-2.839303-6.730392-3.786171-11.041805-3.786171-.525894 0-4.101578 0-6.415639 1.57768-1.892434 1.262274-2.313409 2.944872-2.313409 3.891089.104918 1.787516 1.367192 3.049791 1.682598 3.260278 1.367192 1.051135 4.837307 1.892434 9.044453 2.628815 2.838651.525894 5.678606.946217 8.517909 1.577681 2.839954.630811 5.994663 1.57768 8.30742 3.260278 1.893738 1.36654 5.784176 5.047794 5.784176 11.462781 0 2.523897-.63016 4.942224-1.787516 7.150716zm42.381009 9.254289v-28.920225c0-4.206495.211139-7.992015-3.365196-11.041805-1.051135-.946217-3.049139-2.208492-6.519905-2.208492-4.311413 0-7.782179 1.788168-10.410994 5.047795-1.051135 1.262274-1.892434 2.839302-2.313409 4.416982-.420324 1.577681-.420324 2.839303-.420324 4.521901v28.183844h-12.620137v-74.2454548h12.620137v27.0271388c1.051135-1.156705 2.312758-2.3134093 5.047794-3.8910894 1.997352-1.1567047 5.784175-3.0497905 11.567699-3.0497905 5.784175 0 12.093592 2.1029218 15.563706 6.9408799 3.260279 4.627471 3.260279 9.464777 3.260279 14.723059v32.495257zm20.612152 0h12.830625v-74.2454548h-12.830625zm51.846438 0-.315405-4.101577c-1.998004 1.682598-3.78552 2.523897-4.837307 2.944872-3.470766 1.57768-6.731044 2.418979-10.621482 2.418979-2.523897 0-11.989326-.316057-16.826632-8.097584-.841299-1.367844-2.418328-4.206496-2.312758-8.412991 0-2.944872.735729-8.833966 7.150064-13.14603 4.312065-2.944221 8.412991-3.575033 13.250949-4.52125 7.782179-1.57768 10.621482-2.209143 14.512571-3.576335 0-1.366541-.104918-3.049139-.735729-4.311413-1.051787-1.998004-3.681254-3.575684-8.308072-3.575684-4.837307 0-7.887749 1.472762-9.25429 3.260278-1.47211 1.787516-1.367192 3.89109-1.367192 4.626819l-12.829974-.735729c.10557-2.31341.525242-7.887097 5.678606-12.0935927 3.259627-2.7350364 8.202503-4.8379582 17.351874-4.8379582 8.623478 0 13.671272 1.7881678 16.931551 4.1015772 2.208491 1.5776797 3.365196 3.3651957 3.785519 4.2064947 1.367193 2.734385 1.367193 6.414987 1.367193 9.359208v27.974008c0 3.996007.210488 5.152712 2.314061 8.517908zm0-26.185188c-2.102921 1.051135-4.837306 2.102921-9.990019 2.944221-2.839954.525893-5.889093.630811-8.519211 2.208491-1.787516 1.156705-3.049139 2.944221-3.049139 5.25763 0 3.15536 2.314061 6.205151 8.623478 6.205151 6.94088 0 11.042457-3.575684 12.199162-5.994011.841299-1.68325.735729-3.154709.735729-4.837307zm54.264766 26.185188v-26.816651c0-4.101577 0-6.09893-.525894-8.097585-1.47211-6.099581-6.204499-6.94088-8.728396-6.94088-1.367844 0-3.996659.210488-6.625474 2.418979-3.78552 3.15536-4.942876 7.571691-4.942876 16.616145v22.819992h-12.724404v-52.5815158h12.724404v6.2044988c.209836-.315406 1.262274-1.682598 2.314061-2.7343847 4.942224-4.6274705 12.093592-5.0477942 13.881108-5.0477942 7.782179 0 12.304732 3.9966592 13.98733 6.4149869 3.365196 4.837958 3.049139 11.463432 3.049139 16.825981v30.918228zm65.096735-6.309417c-2.944873 2.734385-9.990019 7.887097-20.821989 7.887097-3.365196 0-11.673268-.420324-18.824636-7.045798-5.994011-5.678606-8.202502-12.935543-8.202502-21.138046 0-4.416982.630811-8.623478 2.313409-12.619485 2.313409-5.258282 8.833966-14.9335469 24.082266-14.9335469 11.778187 0 17.983338 6.0995809 20.717722 10.0955889 2.418328 3.681253 4.837307 10.095588 5.152713 20.297398h-38.910895c.210487 1.577028.736381 4.836655 3.365196 7.991363 1.788167 2.209143 4.942876 5.047794 11.462781 5.047794 6.520556 0 10.306727-3.049138 11.989325-4.836654.420324-.420976 1.051787-1.262275 1.787517-2.41898l10.727051 6.204499c-.841299 1.156705-2.314061 3.155361-4.837958 5.46877zm-10.516564-31.023798c-1.156053-2.523897-3.89109-6.730392-10.7264-6.730392-2.734385 0-4.206495.525893-5.258282.946868-5.889093 2.418328-7.256285 8.307421-7.571691 10.095589h24.60816s-.315406-2.523897-1.051787-4.312065z" fill="#256271"/></svg>

<?xml version="1.0" encoding="UTF-8" standalone="no"?>
<svg width="512px" height="151px" viewBox="0 0 512 151" version="1.1" xmlns="http://www.w3.org/2000/svg" xmlns:xlink="http://www.w3.org/1999/xlink" preserveAspectRatio="xMidYMid">
    <g>
        <path d="M119.560391,23.7539056 C118.609612,19.8504345 117.826311,18.1424215 116.429794,18.0140436 C114.255841,17.8061625 111.96915,18.5757785 110.399289,18.8488259 C104.577969,19.9012643 101.449979,19.2078932 98.0352564,15.5585712 C95.908223,13.281655 97.210249,13.5566575 102.367523,12.6886402 C105.488345,12.1601402 107.636231,11.581462 109.791938,10.6534915 C113.073069,8.85359384 111.90659,6.57798094 108.241628,4.83086807 C105.484435,3.50277555 94.0392489,3.55360539 86.6800002,3.70544325 C79.2184402,3.86705608 71.8833031,4.17529345 67.4956451,0.362403693 C71.7197352,1.14049126 76.8522459,1.15417622 80.2721819,0.9684518 C91.5472833,0.344808748 100.104943,-0.35703406 108.17581,0.206655846 C115.232686,0.689539338 123.222746,2.932569 131.270153,4.97097596 C139.136396,6.95008145 148.072673,8.3329138 149.953378,8.39351861 C151.96637,8.42805683 150.664344,18.4526139 146.012762,19.8699844 C140.749918,21.1035856 135.660417,20.9973642 132.429464,22.7588137 C127.832622,25.2390493 134.025391,39.3345553 136.007754,42.7310314 C136.578613,43.7345949 138.44498,47.3552436 141.458929,49.6960229 C142.998813,50.8807492 146.748491,53.4254996 150.524887,53.7115804 C168.722622,55.1126593 211.127091,54.8304886 214.031561,56.4374935 C215.574703,57.3061625 202.088503,61.0910307 202.088503,61.0910307 C202.088503,61.0910307 156.344904,61.3243266 136.857525,65.2910092 C117.422279,69.2622535 92.4361539,78.5289245 77.1995831,89.7316912 C20.7152479,131.291603 -0.240983314,150.477913 0.00208759365,147.897973 C0.273831745,144.995459 0.557957524,140.005663 1.02129108,138.296346 C1.64754079,135.943837 4.43796874,140.012831 57.7695505,88.0569131 C64.2190753,81.7553161 58.1181911,76.5015959 51.4529652,75.2282432 C43.5528349,73.4687487 29.9369541,67.5053656 38.4763674,68.5271758 C43.3123706,68.8477948 67.7915008,76.136012 113.997782,40.2481891 C120.169046,35.4688807 120.408206,27.1907849 119.560391,23.7539056 Z M157.491182,148.937378 L157.491182,143.889584 C156.965289,144.415477 156.544965,145.04694 156.019072,145.572182 C154.021068,147.465268 149.709003,150.515058 142.873693,150.515058 C141.085525,150.515058 137.299354,150.30457 133.092859,148.306567 C127.414253,145.6771 119.527156,138.841789 119.527156,123.698407 C119.527156,107.608155 128.256204,99.300083 134.250215,96.5663499 C135.932813,95.8299688 138.981952,94.7781821 143.399586,94.7781821 C145.187102,94.7781821 148.973274,94.8837518 152.969281,97.0922432 C153.705011,97.5125669 154.336474,97.8279726 155.598748,98.7748413 C156.544965,99.5105707 157.281346,100.457439 157.491182,100.667275 L157.491182,74.6919232 L170.00575,74.6919232 L170.00575,148.937378 L157.491182,148.937378 Z M155.072203,112.025138 C154.441392,110.868434 153.284687,109.501241 152.33847,108.76486 C150.234897,107.082262 147.921487,106.451451 145.29202,106.451451 C144.240885,106.451451 141.506501,106.661938 138.877034,108.344536 C132.883023,112.235626 132.672535,120.753534 132.672535,122.331214 C132.672535,130.113393 135.932813,139.051625 145.187102,139.051625 C148.552299,139.051625 151.181114,138.00049 153.389605,135.476593 C156.649883,131.901561 157.491182,127.589496 157.386264,122.857108 C157.386264,119.491912 156.860371,115.180498 155.072203,112.025138 Z M209.442538,148.937378 L209.126481,144.835801 C207.128477,146.518399 205.340961,147.359698 204.289174,147.780673 C200.81906,149.358353 197.558782,150.199652 193.667693,150.199652 C191.143796,150.199652 181.679018,149.883595 176.841712,142.102068 C176.000413,140.734224 174.422733,137.895572 174.527651,133.689077 C174.527651,130.744205 175.264032,124.855111 181.679018,120.543047 C185.990432,117.598826 190.092009,116.968014 194.929315,116.021797 C202.711494,114.444117 205.551449,113.812654 209.442538,112.445462 C209.442538,111.078921 209.336969,109.396323 208.706157,108.134049 C207.654371,106.136045 205.025556,104.558365 200.398085,104.558365 C195.560778,104.558365 192.510988,106.031127 191.143796,107.818643 C189.671685,109.606159 189.776603,111.709733 189.776603,112.445462 L176.94663,111.709733 C177.051548,109.396323 177.472523,103.822636 182.625235,99.6161403 C185.885514,96.8811039 190.82839,94.7781821 199.977761,94.7781821 C208.600588,94.7781821 213.649034,96.5663499 216.909312,98.8797593 C219.117152,100.457439 220.274508,102.244955 220.694832,103.086254 C222.062024,105.820639 222.062024,109.501241 222.062024,112.445462 L222.062024,140.41947 C222.062024,144.415477 222.27186,145.572182 224.375433,148.937378 L209.442538,148.937378 Z M209.442538,122.75219 C207.338965,123.803325 204.60458,124.855111 199.451216,125.696411 C196.612565,126.222304 193.562123,126.327222 190.933308,127.904902 C189.145792,129.061607 187.883517,130.849123 187.883517,133.162532 C187.883517,136.317892 190.196927,139.367683 196.506995,139.367683 C203.447875,139.367683 207.549453,135.791999 208.706157,133.373672 C209.547456,131.690422 209.442538,130.218963 209.442538,128.536365 L209.442538,122.75219 Z M272.960942,139.683089 C270.437045,144.521047 263.916488,150.515058 251.087167,150.515058 C241.201414,150.515058 234.155616,147.149862 230.895338,145.151858 C229.107822,143.994502 227.425224,142.627961 225.847544,141.050281 L235.312321,133.373672 C235.733296,133.898913 236.364108,134.84513 237.7313,136.002487 C242.253201,139.892925 248.983593,140.104064 250.456355,140.104064 C253.611064,140.104064 257.291666,139.367683 259.395239,136.949355 C260.236538,136.108056 260.76178,134.9507 260.76178,133.898913 C260.76178,133.47859 260.656862,132.637291 259.920481,131.690422 C258.55394,129.797336 256.871342,129.692418 252.980252,128.851119 C249.509487,128.114738 246.039372,127.695066 242.674176,126.853767 C240.360115,126.222304 228.161605,123.277431 228.161605,111.92022 C228.161605,107.923561 229.844203,104.97934 230.579932,103.822636 C233.209399,99.7210583 239.413898,94.7781821 250.771109,94.7781821 C254.872686,94.7781821 265.494168,95.4096451 273.381917,104.558365 L264.443033,112.866437 C263.391247,110.657946 262.024054,109.396323 261.182755,108.659942 C257.922477,105.820639 254.452363,104.873771 250.14095,104.873771 C249.615056,104.873771 246.039372,104.873771 243.725311,106.451451 C241.832877,107.713725 241.411902,109.396323 241.411902,110.34254 C241.51682,112.130056 242.779094,113.392331 243.0945,113.602818 C244.461692,114.653953 247.931807,115.495252 252.138953,116.231633 C254.977604,116.757527 257.817559,117.17785 260.656862,117.809314 C263.496816,118.440125 266.651525,119.386994 268.964282,121.069592 C270.85802,122.436132 274.748458,126.117386 274.748458,132.532373 C274.748458,135.05627 274.118298,137.474597 272.960942,139.683089 Z M315.341951,148.937378 L315.341951,120.017153 C315.341951,115.810658 315.55309,112.025138 311.976755,108.975348 C310.92562,108.029131 308.927616,106.766856 305.45685,106.766856 C301.145437,106.766856 297.674671,108.555024 295.045856,111.814651 C293.994721,113.076925 293.153422,114.653953 292.732447,116.231633 C292.312123,117.809314 292.312123,119.070936 292.312123,120.753534 L292.312123,148.937378 L279.691986,148.937378 L279.691986,74.6919232 L292.312123,74.6919232 L292.312123,101.719062 C293.363258,100.562357 294.624881,99.4056527 297.359917,97.8279726 C299.357269,96.6712679 303.144092,94.7781821 308.927616,94.7781821 C314.711791,94.7781821 321.021208,96.8811039 324.491322,101.719062 C327.751601,106.346533 327.751601,111.183839 327.751601,116.442121 L327.751601,148.937378 L315.341951,148.937378 Z M335.954103,148.937378 L348.784728,148.937378 L348.784728,74.6919232 L335.954103,74.6919232 L335.954103,148.937378 Z M387.800541,148.937378 L387.485136,144.835801 C385.487132,146.518399 383.699616,147.359698 382.647829,147.780673 C379.177063,149.358353 375.916785,150.199652 372.026347,150.199652 C369.50245,150.199652 360.037021,149.883595 355.199715,142.102068 C354.358416,140.734224 352.781387,137.895572 352.886957,133.689077 C352.886957,130.744205 353.622686,124.855111 360.037021,120.543047 C364.349086,117.598826 368.450012,116.968014 373.28797,116.021797 C381.070149,114.444117 383.909452,113.812654 387.800541,112.445462 C387.800541,111.078921 387.695623,109.396323 387.064812,108.134049 C386.013025,106.136045 383.383558,104.558365 378.75674,104.558365 C373.919433,104.558365 370.868991,106.031127 369.50245,107.818643 C368.03034,109.606159 368.135258,111.709733 368.135258,112.445462 L355.305284,111.709733 C355.410854,109.396323 355.830526,103.822636 360.98389,99.6161403 C364.243517,96.8811039 369.186393,94.7781821 378.335764,94.7781821 C386.959242,94.7781821 392.007036,96.5663499 395.267315,98.8797593 C397.475806,100.457439 398.632511,102.244955 399.052834,103.086254 C400.420027,105.820639 400.420027,109.501241 400.420027,112.445462 L400.420027,140.41947 C400.420027,144.415477 400.630515,145.572182 402.734088,148.937378 L387.800541,148.937378 Z M387.800541,122.75219 C385.69762,123.803325 382.963235,124.855111 377.810522,125.696411 C374.970568,126.222304 371.921429,126.327222 369.291311,127.904902 C367.503795,129.061607 366.242172,130.849123 366.242172,133.162532 C366.242172,136.317892 368.556233,139.367683 374.86565,139.367683 C381.80653,139.367683 385.908107,135.791999 387.064812,133.373672 C387.906111,131.690422 387.800541,130.218963 387.800541,128.536365 L387.800541,122.75219 Z M442.065307,148.937378 L442.065307,122.120727 C442.065307,118.01915 442.065307,116.021797 441.539413,114.023142 C440.067303,107.923561 435.334914,107.082262 432.811017,107.082262 C431.443173,107.082262 428.814358,107.29275 426.185543,109.501241 C422.400023,112.656601 421.242667,117.072932 421.242667,126.117386 L421.242667,148.937378 L408.518263,148.937378 L408.518263,96.3558622 L421.242667,96.3558622 L421.242667,102.560361 C421.452503,102.244955 422.504941,100.877763 423.556728,99.8259763 C428.498952,95.1985058 435.65032,94.7781821 437.437836,94.7781821 C445.220015,94.7781821 449.742568,98.7748413 451.425166,101.193169 C454.790362,106.031127 454.474305,112.656601 454.474305,118.01915 L454.474305,148.937378 L442.065307,148.937378 Z M507.162042,142.627961 C504.217169,145.362346 497.172023,150.515058 486.340053,150.515058 C482.974857,150.515058 474.666785,150.094734 467.515417,143.46926 C461.521406,137.790654 459.312915,130.533717 459.312915,122.331214 C459.312915,117.914232 459.943726,113.707736 461.626324,109.711729 C463.939733,104.453447 470.46029,94.7781821 485.70859,94.7781821 C497.486777,94.7781821 503.691928,100.877763 506.426312,104.873771 C508.84464,108.555024 511.263619,114.969359 511.579025,125.171169 L472.66813,125.171169 C472.878617,126.748197 473.404511,130.007824 476.033326,133.162532 C477.821493,135.371675 480.976202,138.210326 487.496107,138.210326 C494.016663,138.210326 497.802834,135.161188 499.485432,133.373672 C499.905756,132.952696 500.537219,132.111397 501.272949,130.954692 L512,137.159191 C511.158701,138.315896 509.685939,140.314552 507.162042,142.627961 Z M496.645478,111.604163 C495.489425,109.080266 492.754388,104.873771 485.919078,104.873771 C483.184693,104.873771 481.712583,105.399664 480.660796,105.820639 C474.771703,108.238967 473.404511,114.12806 473.089105,115.916228 L497.697265,115.916228 C497.697265,115.916228 497.381859,113.392331 496.645478,111.604163 Z" fill="#256271"></path>
    </g>
</svg>
